X: 4201
T: Bluebell Polka, The
R: barndance
M: 4/4
K: Gmajor
(3Bdg|b2b2 gfge|d2d2 B2G2|FGAB c2e2|ed^cd B2(3Bdg|
b2b2 gfge|d2d2 B2G2|FGAB cdef|g2g2 g2:|
K:D
|:z2|A2A2 FAdf|a2a2 f4|a2^g2 =g2e2|b2a2 ^g2a2|
A2A2 FAdf|a2a2 f4|a2^g2 =g2e2|d2f2 d2:|
K:G
|:(3Bdg|b2b2 gfge|d2d2 B2G2|FGAB c2e2|ed^cd B2(3Bdg|
b2b2 gfge|d2d2 B2G2|FGAB cdef|g2g2 g2:|
K:C
|:z2|e2e2 efg2|e2e2 efg2|f2f2 fdB2|fefg fdB2|
e2e2 efg2|e2e2 efg2|f2f2 fdBd|c2e2 c2:|

